X: 35878
T: Sandwich Maker, The
R: reel
M: 4/4
K: Amajor
AB|:c2ecB2cB|Aaga fece|fa a/a/a fecf|ecaf ecAB|
c2ecB2cB|Aaga fece|fa a/a/a fecf ecBc A2 AB:|
ceef ecae|faaf efcB|ceef ecae|faAB cBB2|
ceef ecae|faaf efcB|affa feaf|ecBc A4:|

